X: 21
T: Adir Hu
C: Shlomo Carlebach
R: freylach
M: 4/4
L: 1/8
Z: John Chambers <jc:trillian.mit.edu>
K: D exp _B_e^F
|:z2 | "D"(FG) (AB) A4 | (FG A)B A2 A2 | (FG A)B "Cm"c(c2 B) | AG FE "D"D2 :|
|:z2 |  "D"D2 A2 A4 | "Cm"(AG) (BA) "Gm"G3 G |1 "Eb"(G2 A2) (F2 G2) | "D"A6 :|2 "Eb"(G2 A2) (F2 E2) | "D"D6 ||
|:d>c | "D"d6 d>c | "Bb"d6 zd | "Cm"e2 d2 c2 B2 | "D"A6 :|
|:z2 | "D"D2 A2 A4 | "Cm"(AG) (BA) "Gm"G3 G |1 "Eb"(G2 A2) (F2 G2) | "D"A6 :|2 "Eb"(G2 A2) (F2 E2) | "D"D6 |]
